build/fonts/cisco/truck.svg

<?xml version="1.0" encoding="UTF-8" standalone="no"?>
<svg
   xmlns:dc="http://purl.org/dc/elements/1.1/"
   xmlns:cc="http://creativecommons.org/ns#"
   xmlns:rdf="http://www.w3.org/1999/02/22-rdf-syntax-ns#"
   xmlns:svg="http://www.w3.org/2000/svg"
   xmlns="http://www.w3.org/2000/svg"
   viewBox="0 0 81.25 33.75"
   height="33.75"
   width="81.25"
   xml:space="preserve"
   version="1.1"
   id="svg2"><metadata
     id="metadata8"><rdf:RDF><cc:Work
         rdf:about=""><dc:format>image/svg+xml</dc:format><dc:type
           rdf:resource="http://purl.org/dc/dcmitype/StillImage" /></cc:Work></rdf:RDF></metadata><defs
     id="defs6"><clipPath
       id="clipPath18"
       clipPathUnits="userSpaceOnUse"><path
         id="path20"
         d="M 0,10 0,267 650,267 650,10 0,10 Z" /></clipPath></defs><g
     transform="matrix(1.25,0,0,-1.25,0,33.75)"
     id="g10"><g
       transform="scale(0.1,0.1)"
       id="g12"><g
         id="g14"><g
           clip-path="url(#clipPath18)"
           id="g16"><path
             id="path22"
             style="fill:#036998;fill-opacity:1;fill-rule:nonzero;stroke:none"
             d="m 403.551,28.4805 0,159.6095 -16.012,-14.059 0,-159.6091 16.012,14.0586" /><path
             id="path24"
             style="fill:none;stroke:#ffffff;stroke-width:3.99993992;stroke-linecap:butt;stroke-linejoin:miter;stroke-miterlimit:4;stroke-dasharray:none;stroke-opacity:1"
             d="m 403.551,28.4805 0,159.6095 -16.012,-14.059 0,-159.6091 16.012,14.0586 z" /><path
             id="path26"
             style="fill:#036998;fill-opacity:1;fill-rule:nonzero;stroke:none"
             d="m 5.30859,14.6992 381.883,0 0,159.063 -381.883,0 0,-159.063 z" /><path
             id="path28"
             style="fill:none;stroke:#ffffff;stroke-width:3.99993992;stroke-linecap:butt;stroke-linejoin:miter;stroke-miterlimit:4;stroke-dasharray:none;stroke-opacity:1"
             d="m 5.30859,14.6992 381.883,0 0,159.063 -381.883,0 0,-159.063 z" /><path
             id="path30"
             style="fill:#036998;fill-opacity:1;fill-rule:nonzero;stroke:none"
             d="m 403.551,188.051 -381.8713,0 -16.37111,-14.289 381.88241,0 16.36,14.289" /><path
             id="path32"
             style="fill:none;stroke:#ffffff;stroke-width:3.99993992;stroke-linecap:butt;stroke-linejoin:miter;stroke-miterlimit:4;stroke-dasharray:none;stroke-opacity:1"
             d="m 403.551,188.051 -381.8713,0 -16.37111,-14.289 381.88241,0 16.36,14.289 z" /><path
             id="path34"
             style="fill:#036998;fill-opacity:1;fill-rule:nonzero;stroke:none"
             d="m 403.551,188.051 -16.36,-14.289" /><path
             id="path36"
             style="fill:none;stroke:#ffffff;stroke-width:3.99993992;stroke-linecap:butt;stroke-linejoin:miter;stroke-miterlimit:4;stroke-dasharray:none;stroke-opacity:1"
             d="m 403.551,188.051 -16.36,-14.289" /><path
             id="path38"
             style="fill:none;stroke:#ffffff;stroke-width:3.99993992;stroke-linecap:butt;stroke-linejoin:miter;stroke-miterlimit:4;stroke-dasharray:none;stroke-opacity:1"
             d="m 84.4492,14.6992 0,159.0628" /><path
             id="path40"
             style="fill:none;stroke:#ffffff;stroke-width:3.99993992;stroke-linecap:butt;stroke-linejoin:miter;stroke-miterlimit:4;stroke-dasharray:none;stroke-opacity:1"
             d="m 157.852,14.6992 0,159.0628" /><path
             id="path42"
             style="fill:none;stroke:#ffffff;stroke-width:3.99993992;stroke-linecap:butt;stroke-linejoin:miter;stroke-miterlimit:4;stroke-dasharray:none;stroke-opacity:1"
             d="m 231.25,14.6992 0,159.0628" /><path
             id="path44"
             style="fill:none;stroke:#ffffff;stroke-width:3.99993992;stroke-linecap:butt;stroke-linejoin:miter;stroke-miterlimit:4;stroke-dasharray:none;stroke-opacity:1"
             d="m 304.648,14.6992 0,159.0628" /><path
             id="path46"
             style="fill:#036998;fill-opacity:1;fill-rule:nonzero;stroke:none"
             d="m 435.27,157.59 15,-22.149 -46.719,-25.671 0,30.082 31.719,17.738" /><path
             id="path48"
             style="fill:none;stroke:#ffffff;stroke-width:3.99993992;stroke-linecap:butt;stroke-linejoin:miter;stroke-miterlimit:4;stroke-dasharray:none;stroke-opacity:1"
             d="m 435.27,157.59 15,-22.149 -46.719,-25.671 0,30.082 31.719,17.738 z" /><path
             id="path50"
             style="fill:#036998;fill-opacity:1;fill-rule:nonzero;stroke:none"
             d="m 457.379,119.301 13.75,-23.7815 -67.578,-38.25 0,30.0821 53.828,31.9494" /><path
             id="path52"
             style="fill:none;stroke:#ffffff;stroke-width:3.99993992;stroke-linecap:butt;stroke-linejoin:miter;stroke-miterlimit:4;stroke-dasharray:none;stroke-opacity:1"
             d="m 457.379,119.301 13.75,-23.7815 -67.578,-38.25 0,30.0821 53.828,31.9494 z" /><path
             id="path54"
             style="fill:#036998;fill-opacity:1;fill-rule:nonzero;stroke:none"
             d="M 606.09,117.43 526.289,255.711 519.449,235.52 599.262,97.2695 606.09,117.43" /><path
             id="path56"
             style="fill:none;stroke:#ffffff;stroke-width:3.99993992;stroke-linecap:butt;stroke-linejoin:miter;stroke-miterlimit:4;stroke-dasharray:none;stroke-opacity:1"
             d="M 606.09,117.43 526.289,255.711 519.449,235.52 599.262,97.2695 606.09,117.43 Z" /><path
             id="path58"
             style="fill:#036998;fill-opacity:1;fill-rule:nonzero;stroke:none"
             d="M 598.789,97.3086 519.301,235.09 422.699,179.34 502.27,41.5703 598.789,97.3086" /><path
             id="path60"
             style="fill:none;stroke:#ffffff;stroke-width:3.99993992;stroke-linecap:butt;stroke-linejoin:miter;stroke-miterlimit:4;stroke-dasharray:none;stroke-opacity:1"
             d="M 598.789,97.3086 519.301,235.09 422.699,179.34 502.27,41.5703 598.789,97.3086 Z" /><path
             id="path62"
             style="fill:#036998;fill-opacity:1;fill-rule:nonzero;stroke:none"
             d="m 526.289,255.629 -96.559,-55.738 -7.031,-20.551 96.602,55.75 6.988,20.539" /><path
             id="path64"
             style="fill:none;stroke:#ffffff;stroke-width:3.99993992;stroke-linecap:butt;stroke-linejoin:miter;stroke-miterlimit:4;stroke-dasharray:none;stroke-opacity:1"
             d="m 526.289,255.629 -96.559,-55.738 -7.031,-20.551 96.602,55.75 6.988,20.539 z" /><path
             id="path66"
             style="fill:#036998;fill-opacity:1;fill-rule:nonzero;stroke:none"
             d="M 526.289,255.629 519.301,235.09" /><path
             id="path68"
             style="fill:none;stroke:#ffffff;stroke-width:3.99993992;stroke-linecap:butt;stroke-linejoin:miter;stroke-miterlimit:4;stroke-dasharray:none;stroke-opacity:1"
             d="M 526.289,255.629 519.301,235.09" /><path
             id="path70"
             style="fill:#036998;fill-opacity:1;fill-rule:nonzero;stroke:none"
             d="m 652.621,192.199 -39.18,70.11 -4.812,-14.137 39.223,-70.082 4.769,14.109" /><path
             id="path72"
             style="fill:none;stroke:#ffffff;stroke-width:3.99993992;stroke-linecap:butt;stroke-linejoin:miter;stroke-miterlimit:4;stroke-dasharray:none;stroke-opacity:1"
             d="m 652.621,192.199 -39.18,70.11 -4.812,-14.137 39.223,-70.082 4.769,14.109 z" /><path
             id="path74"
             style="fill:#036998;fill-opacity:1;fill-rule:nonzero;stroke:none"
             d="m 647.539,178.129 -39.019,69.769 -72.579,-24.019 55.661,-96.449 55.937,50.699" /><path
             id="path76"
             style="fill:none;stroke:#ffffff;stroke-width:3.99993992;stroke-linecap:butt;stroke-linejoin:miter;stroke-miterlimit:4;stroke-dasharray:none;stroke-opacity:1"
             d="m 647.539,178.129 -39.019,69.769 -72.579,-24.019 55.661,-96.449 55.937,50.699 z" /><path
             id="path78"
             style="fill:#036998;fill-opacity:1;fill-rule:nonzero;stroke:none"
             d="m 613.441,262.27 -72.582,-24.02 -4.918,-14.371 72.579,24.019 4.921,14.372" /><path
             id="path80"
             style="fill:none;stroke:#ffffff;stroke-width:3.99993992;stroke-linecap:butt;stroke-linejoin:miter;stroke-miterlimit:4;stroke-dasharray:none;stroke-opacity:1"
             d="m 613.441,262.27 -72.582,-24.02 -4.918,-14.371 72.579,24.019 4.921,14.372 z" /><path
             id="path82"
             style="fill:#036998;fill-opacity:1;fill-rule:nonzero;stroke:none"
             d="M 613.441,262.27 608.52,247.898" /><path
             id="path84"
             style="fill:none;stroke:#ffffff;stroke-width:3.99993992;stroke-linecap:butt;stroke-linejoin:miter;stroke-miterlimit:4;stroke-dasharray:none;stroke-opacity:1"
             d="M 613.441,262.27 608.52,247.898" /></g></g></g></g></svg>

<svg xmlns="http://www.w3.org/2000/svg" viewBox="0 0 81.25 33.75" height="33.75" width="81.25"><defs><clipPath id="a"><path d="M0 10v257h650V10H0z"/></clipPath></defs><g clip-path="url(#a)" transform="matrix(.13 0 0 -.13 0 33.75)"><path d="M403.551 28.48v159.61l-16.012-14.059V14.421l16.012 14.06" fill="#036998"/><path d="M403.551 28.48v159.61l-16.012-14.059V14.421l16.012 14.06z" fill="none" stroke="#fff" stroke-width="4"/><path d="M5.309 14.7h381.883v159.062H5.309V14.7z" fill="#036998"/><path d="M5.309 14.7h381.883v159.062H5.309V14.7z" fill="none" stroke="#fff" stroke-width="4"/><path d="M403.551 188.051H21.68L5.309 173.762H387.19l16.36 14.289" fill="#036998"/><path d="M403.551 188.051H21.68L5.309 173.762H387.19l16.36 14.289z" fill="none" stroke="#fff" stroke-width="4"/><path d="M403.551 188.051l-16.36-14.289" fill="#036998"/><path d="M403.551 188.051l-16.36-14.289M84.45 14.7v159.062M157.852 14.7v159.062M231.25 14.7v159.062M304.648 14.7v159.062" fill="none" stroke="#fff" stroke-width="4"/><path d="M435.27 157.59l15-22.149-46.719-25.671v30.082l31.719 17.738" fill="#036998"/><path d="M435.27 157.59l15-22.149-46.719-25.671v30.082l31.719 17.738z" fill="none" stroke="#fff" stroke-width="4"/><path d="M457.379 119.301l13.75-23.782-67.578-38.25v30.083l53.828 31.949" fill="#036998"/><path d="M457.379 119.301l13.75-23.782-67.578-38.25v30.083l53.828 31.949z" fill="none" stroke="#fff" stroke-width="4"/><path d="M606.09 117.43l-79.801 138.281-6.84-20.191 79.813-138.25 6.828 20.16" fill="#036998"/><path d="M606.09 117.43l-79.801 138.281-6.84-20.191 79.813-138.25 6.828 20.16z" fill="none" stroke="#fff" stroke-width="4"/><path d="M598.789 97.309L519.301 235.09l-96.602-55.75L502.27 41.57l96.519 55.739" fill="#036998"/><path d="M598.789 97.309L519.301 235.09l-96.602-55.75L502.27 41.57l96.519 55.739z" fill="none" stroke="#fff" stroke-width="4"/><path d="M526.289 255.629l-96.559-55.738-7.031-20.551 96.602 55.75 6.988 20.539" fill="#036998"/><path d="M526.289 255.629l-96.559-55.738-7.031-20.551 96.602 55.75 6.988 20.539z" fill="none" stroke="#fff" stroke-width="4"/><path d="M526.289 255.629l-6.988-20.539" fill="#036998"/><path d="M526.289 255.629l-6.988-20.539" fill="none" stroke="#fff" stroke-width="4"/><path d="M652.621 192.199l-39.18 70.11-4.812-14.137 39.223-70.082 4.769 14.109" fill="#036998"/><path d="M652.621 192.199l-39.18 70.11-4.812-14.137 39.223-70.082 4.769 14.109z" fill="none" stroke="#fff" stroke-width="4"/><path d="M647.539 178.129l-39.019 69.769-72.579-24.019 55.661-96.449 55.937 50.699" fill="#036998"/><path d="M647.539 178.129l-39.019 69.769-72.579-24.019 55.661-96.449 55.937 50.699z" fill="none" stroke="#fff" stroke-width="4"/><path d="M613.441 262.27l-72.582-24.02-4.918-14.371 72.579 24.019 4.921 14.372" fill="#036998"/><path d="M613.441 262.27l-72.582-24.02-4.918-14.371 72.579 24.019 4.921 14.372z" fill="none" stroke="#fff" stroke-width="4"/><path d="M613.441 262.27l-4.921-14.372" fill="#036998"/><path d="M613.441 262.27l-4.921-14.372" fill="none" stroke="#fff" stroke-width="4"/></g></svg>
